X:290
T:Spootiskerry
M:4/4
R:Reel
K:G
DE ||: "G"G2 DE GDEG | DEGA "C"B2 AB | "G"G2 DE GABd |"Am"eged "D"B2 AB |
"G"G2 DE GDEG | DEGA "C"B2 AB | "G"g2eg "C"edB2 | "D"dBAB "G"G2 :|
ef || "Em"g2 eg ed B2 | "C"BABG E2 DE | "G"GABd eged | "Am"B2 A2 "D"A2 ef |
"Em"g2 eg ed B2 | BABG "C"E2 DE | "G"GABd "C"eged | "D"B2 G2 "G"G2 ef |
"EM"g2 eg ed B2 | BABG "C"E2 DE | "G"GABd eged | "C"B2 A2 "D"A2 BA|
"G"G2 DE GDEG | DEGA "Em"B2 AB | "C"g2eg "Am"edB2 | "D"dBAB "G"G2 ||
